icons/restaurant-15.svg

<?xml version="1.0" encoding="UTF-8" standalone="no"?>
<!-- Generator: Adobe Illustrator 17.1.0, SVG Export Plug-In . SVG Version: 6.00 Build 0)  -->

<svg
   xmlns:dc="http://purl.org/dc/elements/1.1/"
   xmlns:cc="http://creativecommons.org/ns#"
   xmlns:rdf="http://www.w3.org/1999/02/22-rdf-syntax-ns#"
   xmlns:svg="http://www.w3.org/2000/svg"
   xmlns="http://www.w3.org/2000/svg"
   xmlns:sodipodi="http://sodipodi.sourceforge.net/DTD/sodipodi-0.dtd"
   xmlns:inkscape="http://www.inkscape.org/namespaces/inkscape"
   version="1.1"
   id="svg4619"
   x="0px"
   y="0px"
   height="15"
   width="15"
   viewBox="0 0 15 15"
   enable-background="new 0 0 15 15"
   xml:space="preserve"
   inkscape:version="0.91 r"
   sodipodi:docname="restaurant-15.svg"><metadata
     id="metadata8"><rdf:RDF><cc:Work
         rdf:about=""><dc:format>image/svg+xml</dc:format><dc:type
           rdf:resource="http://purl.org/dc/dcmitype/StillImage" /><dc:title></dc:title></cc:Work></rdf:RDF></metadata><defs
     id="defs6" /><sodipodi:namedview
     pagecolor="#ffffff"
     bordercolor="#666666"
     borderopacity="1"
     objecttolerance="10"
     gridtolerance="10"
     guidetolerance="10"
     inkscape:pageopacity="0"
     inkscape:pageshadow="2"
     inkscape:window-width="985"
     inkscape:window-height="745"
     id="namedview4"
     showgrid="true"
     inkscape:snap-bbox="true"
     inkscape:bbox-paths="true"
     inkscape:bbox-nodes="true"
     inkscape:snap-bbox-edge-midpoints="true"
     inkscape:snap-bbox-midpoints="true"
     inkscape:object-paths="true"
     inkscape:snap-intersection-paths="true"
     inkscape:object-nodes="true"
     inkscape:snap-smooth-nodes="true"
     inkscape:zoom="16"
     inkscape:cx="5.2948226"
     inkscape:cy="16.255993"
     inkscape:window-x="0"
     inkscape:window-y="0"
     inkscape:window-maximized="0"
     inkscape:current-layer="svg4619"><inkscape:grid
       type="xygrid"
       id="grid3336"
       spacingx="0.5"
       spacingy="0.5"
       color="#fd0000"
       opacity="0.1254902"
       empspacing="2" /></sodipodi:namedview><path
     style="fill:#000000;fill-opacity:1"
     d="M 3.5 0 L 2.5 5.5 C 2.3536392 6.3049845 4.2814996 6.6810094 4.25 7.5 L 4 14 C 3.961567 14.999261 5 15 5 15 C 5 15 6.0384331 14.999261 6 14 L 5.75 7.5 C 5.7185547 6.6824227 7.4834499 6.3192309 7.5 5.5 L 6.5 0 L 6 0 L 6.25 4 L 5.5 4.5 L 5.25 0 L 4.75 0 L 4.5 4.5 L 3.75 4 L 4 0 L 3.5 0 z M 12 0 C 11.263636 0 10.035831 0.65490052 9.5449219 1.6367188 C 9.135831 2.3730824 9 4.0181818 9 5 L 9 7.5 C 9 8.3181819 10.090908 8.5 10.5 8.5 L 10 14 C 9.909464 14.995893 11 15 11 15 C 11 15 12 15 12 14 L 12 0 z "
     id="path11774" /></svg>

<?xml version="1.0" encoding="utf-8"?>
<!-- Generator: Adobe Illustrator 19.2.1, SVG Export Plug-In . SVG Version: 6.00 Build 0)  -->
<!DOCTYPE svg PUBLIC "-//W3C//DTD SVG 1.1//EN" "http://www.w3.org/Graphics/SVG/1.1/DTD/svg11.dtd">
<svg version="1.1"
	 id="svg4619" inkscape:version="0.91 r" sodipodi:docname="restaurant-15.svg" xmlns:cc="http://creativecommons.org/ns#" xmlns:dc="http://purl.org/dc/elements/1.1/" xmlns:inkscape="http://www.inkscape.org/namespaces/inkscape" xmlns:rdf="http://www.w3.org/1999/02/22-rdf-syntax-ns#" xmlns:sodipodi="http://sodipodi.sourceforge.net/DTD/sodipodi-0.dtd" xmlns:svg="http://www.w3.org/2000/svg"
	 xmlns="http://www.w3.org/2000/svg" xmlns:xlink="http://www.w3.org/1999/xlink" x="0px" y="0px" width="15px" height="15px"
	 viewBox="0 0 15 15" style="enable-background:new 0 0 15 15;" xml:space="preserve">
<path id="path11774" d="M3.5,0l-1,5.5c-0.1464,0.805,1.7815,1.181,1.75,2L4,14c-0.0384,0.9993,1,1,1,1s1.0384-0.0007,1-1L5.75,7.5
	c-0.0314-0.8176,1.7334-1.1808,1.75-2L6.5,0H6l0.25,4L5.5,4.5L5.25,0h-0.5L4.5,4.5L3.75,4L4,0H3.5z M12,0
	c-0.7364,0-1.9642,0.6549-2.4551,1.6367C9.1358,2.3731,9,4.0182,9,5v2.5c0,0.8182,1.0909,1,1.5,1L10,14c-0.0905,0.9959,1,1,1,1
	s1,0,1-1V0z"/>
</svg>
